static/assets/img/icons/theme/general/edit.svg

<svg height="24" viewBox="0 0 24 24" width="24" xmlns="http://www.w3.org/2000/svg"><g fill="none" fill-rule="evenodd"><path d="m0 0h24v24h-24z" opacity="0"/><path d="m7.10343995 21.9419885-.3869014-13.90647029c-.01146651-.41214303.14721773-.81083466.43875963-1.10237656l3.07881112-3.0788111c.5857864-.58578644 1.5355339-.58578644 2.1213203 0l3.1059816 3.10598155c.2755005.27550049.4329953.6473874.4391525 1.03695527l.2193656 13.87929983c.0130919.8283237-.6477841 1.5104257-1.4761077 1.5235176-.0079011.0001249-.0158029.0001873-.0237049.0001873h-6.01725694c-.8121803 0-1.47683232-.6464175-1.49941981-1.4582836z" fill="#000" fill-rule="nonzero" transform="matrix(-.70710678 -.70710678 .70710678 -.70710678 10.011185 30.962031)"/></g></svg>

<svg width="24px" height="24px" viewBox="0 0 24 24" version="1.1" xmlns="http://www.w3.org/2000/svg" xmlns:xlink="http://www.w3.org/1999/xlink">
    <title>Icon For Edit</title>
    <g stroke="none" stroke-width="1" fill="none" fill-rule="evenodd">
        <rect opacity="0" x="0" y="0" width="24" height="24"></rect>
        <path d="M7.10343995,21.9419885 L6.71653855,8.03551821 C6.70507204,7.62337518 6.86375628,7.22468355 7.15529818,6.93314165 L10.2341093,3.85433055 C10.8198957,3.26854411 11.7696432,3.26854411 12.3554296,3.85433055 L15.4614112,6.9603121 C15.7369117,7.23581259 15.8944065,7.6076995 15.9005637,7.99726737 L16.1199293,21.8765672 C16.1330212,22.7048909 15.4721452,23.3869929 14.6438216,23.4000848 C14.6359205,23.4002097 14.6280187,23.4002721 14.6201167,23.4002721 L8.60285976,23.4002721 C7.79067946,23.4002721 7.12602744,22.7538546 7.10343995,21.9419885 Z" fill="#000000" fill-rule="nonzero" transform="translate(11.418039, 13.407631) rotate(-135.000000) translate(-11.418039, -13.407631) "></path>
    </g>
</svg>
